X: 1
T: Rapp-Kalles vals
M: 3/4
L: 1/8
R: Vals
O: Uppland
C: Johan Olsson
N: Ltskrivaren r fiolspelman frn Blinge (ca. 1900-1960)
K:D
D2|DE FG AB|A2 gf ed|cd eA Bc|d2 AG FE|
DE FG AB|A2 gf ed|cd eA Bc|d3 z:|
d2|d2 c2 B2|G2>z2 B2|B2 A2 D2|F2>z2 A2|A2 G2 A,2|C2>z2 d2|(cd) (eA) (Bc)|
   d2 c2 B2|G2>z2 B2|B2 A2 D2|F2>z2 A2|A2 G2 A,2|C2>z2 d2|(cd) (eA) (Bc)|d2>z2 :|
f2|a2 (fd) fa|a2 (fd) fa|(a2 g2) f2|g2>z2 g2|g2 (ec) eg|g2 (ec) eg|g2 f2 e2|f2>z2 a2|
   a2 (fd) fa|a2 (fd) fa|a2 g2 a2| b2>z2 (g2|f2) fg a2|e2 ef g2|A2 B2 c2| (ed) (cd) (fe)|d2>z2 :|
